static/images/mainTabs2.svg

<svg height="88" viewBox="0 0 67 88" width="67" xmlns="http://www.w3.org/2000/svg"><path d="m67 88v-16h-35c22.1702128-16.6262925 34.3520309-29.4948301 34-44 .3520309-17.6011817-14.2920696-28-33-28-11.7466151 0-24.57640232 4.41949778-33 14l10 12c6.3288201-5.7223043 13.8452611-9.6218612 24-10 6.8220503.3781388 13.6905222 4.1477105 14 12-.3094778 10.3456425-10.6769826 19.3146233-46 46v14z" fill="#caf4ff" fill-rule="evenodd" opacity=".404325"/></svg>

<?xml version="1.0" encoding="UTF-8"?>
<svg width="67px" height="88px" viewBox="0 0 67 88" version="1.1" xmlns="http://www.w3.org/2000/svg" xmlns:xlink="http://www.w3.org/1999/xlink">
    <!-- Generator: sketchtool 46.2 (44496) - http://www.bohemiancoding.com/sketch -->
    <title>A475590E-5A62-48BA-A2F7-72336FEA1C10</title>
    <desc>Created with sketchtool.</desc>
    <defs></defs>
    <g id="Page-1" stroke="none" stroke-width="1" fill="none" fill-rule="evenodd" opacity="0.404325181">
        <g id="Home-Page-10/04/2017-screen-Integrate-Rakam" transform="translate(-289.000000, -1020.000000)" fill="#CAF4FF">
            <g id="How-Rakam-Works" transform="translate(160.000000, 757.000000)">
                <g id="create-a-project" transform="translate(129.000000, 263.000000)">
                    <path d="M67,88 L67,72 L32,72 C54.1702128,55.3737075 66.3520309,42.5051699 66,28 C66.3520309,10.3988183 51.7079304,0 33,0 C21.2533849,0 8.42359768,4.41949778 0,14 L10,26 C16.3288201,20.2776957 23.8452611,16.3781388 34,16 C40.8220503,16.3781388 47.6905222,20.1477105 48,28 C47.6905222,38.3456425 37.3230174,47.3146233 2,74 L2,88 L67,88 Z" id="2"></path>
                </g>
            </g>
        </g>
    </g>
</svg>
